icons/1_Primary/KDE.svg

<svg xmlns="http://www.w3.org/2000/svg" width="1024" height="1024" fill="none">
   <g clip-path="url(#a)">
      <path fill="#9ABEFF" d="M512 1024c282.77 0 512-229.23 512-512S794.77 0 512 0 0 229.23 0 512s229.23 512 512 512Z"/>
      <path fill="#fff" d="m553.231 249-87.48 8.37v360.21l86.55-13V451l116.35 170.31 91.21-28.86-119.14-163.81 120.07-154.51-93.07-21.4-115.41 154.5.92-158.23Zm-198.29 87.78a4.436 4.436 0 0 0-2.68 1.28l-34.33 34.33a4.437 4.437 0 0 0-.65 5.45l40.2 66.2a171.781 171.781 0 0 0-16.93 38.54l-73.8 15.35a4.44 4.44 0 0 0-3.53 4.35v48.55a4.428 4.428 0 0 0 3.38 4.31l71.63 17.51a171.578 171.578 0 0 0 17.56 44.51l-41.46 63.22a4.435 4.435 0 0 0 .58 5.58l34.32 34.33a4.472 4.472 0 0 0 5.46.66l65-39.46a171.735 171.735 0 0 0 41.07 17.09l15.16 72.88a4.435 4.435 0 0 0 4.35 3.53h48.55a4.431 4.431 0 0 0 4.31-3.4l17.85-73a171.103 171.103 0 0 0 42.25-17.78l64 42a4.435 4.435 0 0 0 5.58-.57l34.33-34.33a4.429 4.429 0 0 0 .65-5.45l-23.39-38.54-7.56 2.39a2.606 2.606 0 0 1-3-1l-34.16-50a139.115 139.115 0 0 1-103.906 74.433 139.108 139.108 0 0 1-76.974-264.573v-35.89a171.34 171.34 0 0 0-25.41 11.2l-65.53-43a4.453 4.453 0 0 0-2.89-.71l-.03.01Z"/>
   </g>
   <defs>
      <clipPath id="a">
         <path fill="#fff" d="M0 0h1024v1024H0z"/>
      </clipPath>
   </defs>
</svg>

<svg width="1024" height="1024" viewBox="0 0 1024 1024" fill="none" xmlns="http://www.w3.org/2000/svg">
<g clip-path="url(#clip0_2_2583)">
<path d="M512 1024C794.77 1024 1024 794.77 1024 512C1024 229.23 794.77 0 512 0C229.23 0 0 229.23 0 512C0 794.77 229.23 1024 512 1024Z" fill="#9ABEFF"/>
<path d="M553.231 249L465.751 257.37V617.58L552.301 604.58V451L668.651 621.31L759.861 592.45L640.721 428.64L760.791 274.13L667.721 252.73L552.311 407.23L553.231 249ZM354.941 336.78C353.927 336.886 352.981 337.338 352.261 338.06L317.931 372.39C317.227 373.094 316.781 374.014 316.663 375.003C316.545 375.991 316.762 376.99 317.281 377.84L357.481 444.04C350.279 456.144 344.593 469.088 340.551 482.58L266.751 497.93C265.752 498.139 264.856 498.686 264.213 499.478C263.57 500.27 263.22 501.26 263.221 502.28V550.83C263.219 551.823 263.552 552.788 264.165 553.57C264.778 554.352 265.636 554.905 266.601 555.14L338.231 572.65C341.977 588.234 347.887 603.216 355.791 617.16L314.331 680.38C313.77 681.235 313.522 682.257 313.628 683.273C313.733 684.29 314.187 685.239 314.911 685.96L349.231 720.29C349.937 720.993 350.858 721.44 351.847 721.559C352.836 721.679 353.837 721.464 354.691 720.95L419.691 681.49C432.582 688.943 446.388 694.688 460.761 698.58L475.921 771.46C476.13 772.459 476.676 773.355 477.469 773.998C478.261 774.641 479.25 774.991 480.271 774.99H528.821C529.817 774.99 530.784 774.655 531.566 774.038C532.348 773.421 532.899 772.559 533.131 771.59L550.981 698.59C565.798 694.585 580.009 688.605 593.231 680.81L657.231 722.81C658.084 723.372 659.106 723.622 660.122 723.518C661.139 723.414 662.088 722.963 662.811 722.24L697.141 687.91C697.846 687.207 698.293 686.287 698.411 685.298C698.529 684.309 698.311 683.309 697.791 682.46L674.401 643.92L666.841 646.31C666.3 646.495 665.714 646.497 665.172 646.316C664.63 646.135 664.162 645.782 663.841 645.31L629.681 595.31C619.572 615.119 604.862 632.216 586.783 645.167C568.704 658.118 547.783 666.545 525.775 669.743C503.767 672.941 481.313 670.816 460.296 663.546C439.279 656.276 420.311 644.073 404.982 627.96C389.654 611.847 378.413 592.294 372.2 570.94C365.987 549.586 364.985 527.054 369.277 505.233C373.568 483.412 383.029 462.938 396.866 445.528C410.703 428.117 428.512 414.278 448.801 405.17V369.28C440.042 372.32 431.544 376.065 423.391 380.48L357.861 337.48C357.007 336.919 355.987 336.668 354.971 336.77L354.941 336.78Z" fill="white"/>
</g>
<defs>
<clipPath id="clip0_2_2583">
<rect width="1024" height="1024" fill="white"/>
</clipPath>
</defs>
</svg>
